;FLAVOR:Marlin
;TIME:2018
;Filament used: 2.7217m
;Layer height: 0.28
;MINX:99.575
;MINY:109.965
;MINZ:0.28
;MAXX:160.575
;MAXY:150.465
;MAXZ:19.04
;Generated with Cura_SteamEngine 5.4.0
M140 S60
M105
M190 S60
M104 S200
M105
M109 S200
M82 ;absolute extrusion mode

G28 ;Home

G92 E0 ;Reset Extruder
G1 Z2.0 F3000 ;Move Z Axis up
G1 X10.1 Y20 Z0.28 F5000.0 ;Move to start position
G1 X10.1 Y200.0 Z0.28 F1500.0 E15 ;Draw the first line
G1 X10.4 Y200.0 Z0.28 F5000.0 ;Move to side a little
G1 X10.4 Y20 Z0.28 F1500.0 E30 ;Draw the second line
G92 E0 ;Reset Extruder
G1 Z2.0 F3000 ;Move Z Axis up

G92 E0
G92 E0
G1 F1500 E-6.5
;LAYER_COUNT:68
;LAYER:0
M107
G0 F6000 X103.031 Y112.978 Z0.28
;TYPE:SKIRT
G1 F1500 E0
G1 F1200 X103.767 Y112.341 E0.04532
G1 X104.499 Y111.811 E0.08741
G1 X105.396 Y111.276 E0.13604
G1 X106.274 Y110.855 E0.18138
G1 X107.187 Y110.513 E0.22678
G1 X108.124 Y110.254 E0.27204
G1 X109.091 Y110.076 E0.31783
G1 X110.23 Y109.98 E0.37105
G1 X110.887 Y109.965 E0.40165
G1 X148.879 Y109.965 E2.17072
G1 X149.759 Y109.978 E2.2117
G1 X150.731 Y110.037 E2.25704
G1 X151.694 Y110.183 E2.3024
G1 X152.641 Y110.414 E2.34779
G1 X153.529 Y110.714 E2.39143
G1 X154.421 Y111.104 E2.43676
G1 X155.304 Y111.591 E2.48372
G1 X156.055 Y112.093 E2.52578
G1 X156.87 Y112.751 E2.57456
G1 X157.568 Y113.429 E2.61987
G1 X158.204 Y114.166 E2.6652
G1 X158.774 Y114.956 E2.71056
G1 X159.236 Y115.732 E2.75261
G1 X159.69 Y116.674 E2.8013
G1 X160.019 Y117.552 E2.84496
G1 X160.288 Y118.524 E2.89192
G1 X160.465 Y119.49 E2.93765
G1 X160.56 Y120.62 E2.99046
G1 X160.575 Y121.295 E3.0219
G1 X160.574 Y138.865 E3.84003
G1 X160.563 Y139.628 E3.87556
G1 X160.506 Y140.601 E3.92095
G1 X160.361 Y141.564 E3.96629
G1 X160.132 Y142.51 E4.01161
G1 X159.821 Y143.434 E4.05701
G1 X159.429 Y144.325 E4.10234
G1 X158.961 Y145.177 E4.1476
G1 X158.439 Y145.958 E4.19134
G1 X157.806 Y146.743 E4.2383
G1 X157.181 Y147.394 E4.28032
G1 X156.392 Y148.082 E4.32907
G1 X155.632 Y148.632 E4.37275
G1 X154.765 Y149.149 E4.41975
G1 X153.887 Y149.571 E4.46511
G1 X152.976 Y149.913 E4.51043
G1 X152.037 Y150.174 E4.55581
G1 X151.071 Y150.352 E4.60154
G1 X149.92 Y150.45 E4.65533
G1 X149.245 Y150.465 E4.68677
G1 X111.139 Y150.464 E6.46115
G1 X110.406 Y150.453 E6.49528
G1 X109.434 Y150.396 E6.54062
G1 X108.471 Y150.25 E6.58597
G1 X107.525 Y150.021 E6.6313
G1 X106.601 Y149.709 E6.67671
G1 X105.711 Y149.317 E6.72199
G1 X104.888 Y148.866 E6.76569
G1 X104.049 Y148.305 E6.81269
G1 X103.345 Y147.739 E6.85475
G1 X102.592 Y147.014 E6.90342
G1 X101.955 Y146.278 E6.94875
G1 X101.425 Y145.547 E6.99079
G1 X100.889 Y144.65 E7.03945
G1 X100.467 Y143.772 E7.08481
G1 X100.125 Y142.86 E7.13016
G1 X99.865 Y141.922 E7.17549
G1 X99.687 Y140.953 E7.22136
G1 X99.589 Y139.774 E7.27645
G1 X99.575 Y139.123 E7.30677
G1 X99.576 Y121.49 E8.12784
G1 X99.587 Y120.79 E8.16044
G1 X99.645 Y119.817 E8.20582
G1 X99.791 Y118.854 E8.25118
G1 X100.021 Y117.908 E8.29651
G1 X100.334 Y116.985 E8.34189
G1 X100.726 Y116.095 E8.38718
G1 X101.196 Y115.242 E8.43253
G1 X101.739 Y114.434 E8.47786
G1 X102.306 Y113.73 E8.51995
G1 X103.031 Y112.978 E8.56859
G0 F6000 X103.293 Y113.28
G1 F1200 X104.002 Y112.665 E8.61229
G1 X104.734 Y112.135 E8.65437
G1 X105.57 Y111.636 E8.69971
G1 X106.415 Y111.229 E8.74338
G1 X107.294 Y110.898 E8.78712
G1 X108.197 Y110.647 E8.83076
G1 X109.125 Y110.475 E8.87471
G1 X110.264 Y110.379 E8.92793
G1 X110.896 Y110.365 E8.95737
G1 X148.873 Y110.365 E10.72573
G1 X149.735 Y110.377 E10.76588
G1 X150.672 Y110.433 E10.80959
G1 X151.6 Y110.572 E10.85328
G1 X152.513 Y110.793 E10.89702
G1 X153.369 Y111.081 E10.93907
G1 X154.261 Y111.471 E10.98441
G1 X155.082 Y111.924 E11.02807
G1 X155.833 Y112.426 E11.07013
G1 X156.592 Y113.038 E11.11553
G1 X157.266 Y113.691 E11.15923
G1 X157.88 Y114.4 E11.2029
G1 X158.43 Y115.161 E11.24662
G1 X158.892 Y115.937 E11.28868
G1 X159.315 Y116.814 E11.33402
G1 X159.644 Y117.692 E11.37767
G1 X159.895 Y118.597 E11.42141
G1 X160.066 Y119.524 E11.4653
G1 X160.161 Y120.654 E11.5181
G1 X160.175 Y121.295 E11.54796
G1 X160.174 Y138.86 E12.36586
G1 X160.164 Y139.605 E12.40055
G1 X160.11 Y140.542 E12.44425
G1 X159.972 Y141.471 E12.48799
G1 X159.753 Y142.383 E12.53166
G1 X159.455 Y143.273 E12.57536
G1 X159.078 Y144.133 E12.61909
G1 X158.628 Y144.955 E12.66272
G1 X158.106 Y145.736 E12.70647
G1 X157.517 Y146.466 E12.75014
G1 X156.892 Y147.117 E12.79216
G1 X156.157 Y147.758 E12.83758
G1 X155.397 Y148.308 E12.88126
G1 X154.591 Y148.789 E12.92497
G1 X153.746 Y149.197 E12.96866
G1 X152.868 Y149.528 E13.01235
G1 X151.964 Y149.781 E13.05606
G1 X151.037 Y149.953 E13.09996
G1 X149.886 Y150.051 E13.15375
G1 X149.245 Y150.065 E13.18361
G1 X111.145 Y150.064 E14.9577
G1 X110.429 Y150.054 E14.99105
G1 X109.493 Y150 E15.0347
G1 X108.564 Y149.861 E15.07844
G1 X107.652 Y149.642 E15.12212
G1 X106.762 Y149.343 E15.16583
G1 X105.903 Y148.966 E15.20952
G1 X105.08 Y148.515 E15.25322
G1 X104.3 Y147.993 E15.29692
G1 X103.596 Y147.427 E15.33898
G1 X102.894 Y146.752 E15.38433
G1 X102.279 Y146.043 E15.42803
G1 X101.749 Y145.312 E15.47008
G1 X101.249 Y144.476 E15.51543
G1 X100.841 Y143.631 E15.55913
G1 X100.51 Y142.753 E15.60282
G1 X100.258 Y141.849 E15.64652
G1 X100.086 Y140.92 E15.69051
G1 X99.988 Y139.741 E15.7456
G1 X99.975 Y139.123 E15.77438
G1 X99.976 Y121.496 E16.59517
G1 X99.986 Y120.813 E16.62698
G1 X100.041 Y119.876 E16.67068
G1 X100.18 Y118.948 E16.71438
G1 X100.4 Y118.036 E16.75806
G1 X100.7 Y117.146 E16.80179
G1 X101.077 Y116.287 E16.84548
G1 X101.528 Y115.465 E16.88913
G1 X102.051 Y114.685 E16.93286
G1 X102.618 Y113.981 E16.97495
G1 X103.293 Y113.28 E17.02027
G0 F6000 X103.556 Y113.582
G1 F1200 X104.237 Y112.989 E17.06232
G1 X104.969 Y112.459 E17.1044
G1 X105.744 Y111.996 E17.14643
G1 X106.557 Y111.603 E17.18848
G1 X107.402 Y111.283 E17.23055
G1 X108.271 Y111.04 E17.27257
G1 X109.159 Y110.874 E17.31464
G1 X110.298 Y110.778 E17.36786
G1 X110.905 Y110.765 E17.39613
G1 X148.868 Y110.765 E19.16385
G1 X149.712 Y110.776 E19.20315
G1 X150.614 Y110.829 E19.24523
G1 X151.507 Y110.961 E19.28726
G1 X152.385 Y111.172 E19.32931
G1 X153.241 Y111.46 E19.37136
G1 X154.068 Y111.822 E19.4134
G1 X154.86 Y112.257 E19.45547
G1 X155.611 Y112.759 E19.49754
G1 X156.314 Y113.326 E19.53959
G1 X156.964 Y113.953 E19.58164
G1 X157.556 Y114.635 E19.6237
G1 X158.086 Y115.366 E19.66574
G1 X158.548 Y116.142 E19.70779
G1 X158.941 Y116.955 E19.74984
G1 X159.259 Y117.8 E19.79188
G1 X159.502 Y118.67 E19.83394
G1 X159.667 Y119.558 E19.876
G1 X159.762 Y120.688 E19.9288
G1 X159.775 Y121.295 E19.95707
G1 X159.774 Y138.855 E20.77474
G1 X159.765 Y139.582 E20.80859
G1 X159.714 Y140.484 E20.85066
G1 X159.583 Y141.378 E20.89274
G1 X159.374 Y142.256 E20.93476
G1 X159.088 Y143.113 E20.97683
G1 X158.727 Y143.941 E21.01889
G1 X158.295 Y144.733 E21.0609
G1 X157.794 Y145.485 E21.10297
G1 X157.228 Y146.189 E21.14504
G1 X156.603 Y146.84 E21.18706
G1 X155.922 Y147.434 E21.22914
G1 X155.191 Y147.965 E21.27121
G1 X154.417 Y148.429 E21.31323
G1 X153.604 Y148.823 E21.3553
G1 X152.76 Y149.143 E21.39733
G1 X151.89 Y149.388 E21.43941
G1 X151.003 Y149.554 E21.48143
G1 X149.852 Y149.652 E21.53522
G1 X149.245 Y149.665 E21.56349
G1 X111.15 Y149.664 E23.33736
G1 X110.452 Y149.655 E23.36986
G1 X109.551 Y149.604 E23.41188
G1 X108.657 Y149.472 E23.45396
G1 X107.779 Y149.263 E23.49599
G1 X106.922 Y148.976 E23.53807
G1 X106.095 Y148.615 E23.58009
G1 X105.302 Y148.182 E23.62216
G1 X104.551 Y147.681 E23.6642
G1 X103.847 Y147.115 E23.70626
G1 X103.196 Y146.489 E23.74831
G1 X102.603 Y145.808 E23.79036
G1 X102.073 Y145.077 E23.8324
G1 X101.609 Y144.302 E23.87446
G1 X101.215 Y143.489 E23.91653
G1 X100.895 Y142.645 E23.95856
G1 X100.651 Y141.775 E24.00064
G1 X100.485 Y140.887 E24.0427
G1 X100.388 Y139.732 E24.09667
G1 X100.375 Y139.123 E24.12504
G1 X100.376 Y121.501 E24.94559
G1 X100.385 Y120.836 E24.97656
G1 X100.437 Y119.934 E25.01863
G1 X100.569 Y119.041 E25.06066
G1 X100.779 Y118.163 E25.1027
G1 X101.066 Y117.306 E25.14478
G1 X101.428 Y116.479 E25.18682
G1 X101.861 Y115.687 E25.22885
G1 X102.363 Y114.936 E25.27091
G1 X102.93 Y114.232 E25.313
G1 X103.556 Y113.582 E25.35503
G1 F1500 E18.85503
;MESH:brick.stl
G0 F6000 X117.898 Y128.66
G0 X119.709 Y132.338
;TYPE:WALL-INNER
G1 F1500 E25.35503
G1 F1200 X119.066 Y132.256 E25.38521
G1 X118.688 Y132.121 E25.4039
G1 X118.335 Y131.914 E25.42295
G1 X117.953 Y131.556 E25.44733
G1 X117.674 Y131.117 E25.47155
G1 X117.534 Y130.729 E25.49076
G1 X117.475 Y130.215 E25.51485
G1 X117.534 Y129.698 E25.53908
G1 X117.729 Y129.201 E25.56394
G1 X118.033 Y128.783 E25.58801
G1 X118.34 Y128.513 E25.60704
G1 X118.688 Y128.304 E25.62595
G1 X119.183 Y128.149 E25.6501
G1 X119.709 Y128.098 E25.67471
G1 X120.35 Y128.248 E25.70536
G1 X120.814 Y128.511 E25.7302
G1 X121.197 Y128.88 E25.75496
G1 X121.54 Y129.417 E25.78463
G1 X121.661 Y129.962 E25.81063
G1 X121.661 Y130.468 E25.83419
G1 X121.575 Y130.862 E25.85297
G1 X121.417 Y131.23 E25.87161
G1 X121.109 Y131.68 E25.89701
G1 X120.486 Y132.137 E25.93298
G1 X119.709 Y132.338 E25.97036
G1 F1500 E19.47036
G0 F6000 X119.697 Y132.438
G0 X119.022 Y132.432
G0 X119.022 Y138.665
G0 X111.175 Y138.865
G1 F1500 E25.97036
G1 F1200 X148.975 Y138.865 E27.73048
G1 X148.975 Y121.565 E28.53604
G1 X111.175 Y121.565 E30.29617
G1 X111.175 Y138.865 E31.10173
G1 F1500 E24.60173
G0 F6000 X140.697 Y138.665
G0 X140.72 Y132.522
G0 X140.709 Y132.338
G1 F1500 E31.10173
G1 F1200 X140.066 Y132.256 E31.13191
G1 X139.688 Y132.121 E31.1506
G1 X139.332 Y131.913 E31.1698
G1 X138.957 Y131.553 E31.19401
G1 X138.676 Y131.112 E31.21836
G1 X138.537 Y130.726 E31.23746
G1 X138.471 Y130.23 E31.26076
G1 X138.539 Y129.699 E31.28569
G1 X138.732 Y129.206 E31.31034
G1 X139.031 Y128.785 E31.33438
G1 X139.34 Y128.513 E31.35355
G1 X139.688 Y128.304 E31.37245
G1 X140.183 Y128.149 E31.39661
G1 X140.709 Y128.098 E31.42121
G1 X141.35 Y128.248 E31.45187
G1 X141.811 Y128.509 E31.47654
G1 X142.201 Y128.877 E31.5015
G1 X142.542 Y129.414 E31.53113
G1 X142.665 Y129.962 E31.55728
G1 X142.665 Y130.467 E31.58079
G1 X142.577 Y130.862 E31.59964
G1 X142.416 Y131.231 E31.61838
G1 X142.115 Y131.671 E31.64321
G1 X141.488 Y132.137 E31.67958
G1 X140.709 Y132.338 E31.71704
G0 F6000 X140.687 Y131.932
;TYPE:WALL-OUTER
G1 F1200 X140.139 Y131.857 E31.7428
G1 X139.873 Y131.762 E31.75595
G1 X139.595 Y131.603 E31.77086
G1 X139.266 Y131.299 E31.79172
G1 X139.027 Y130.917 E31.8127
G1 X138.923 Y130.613 E31.82767
G1 X138.876 Y130.189 E31.84753
G1 X138.927 Y129.795 E31.86603
G1 X139.073 Y129.418 E31.88485
G1 X139.349 Y129.037 E31.90676
G1 X139.591 Y128.829 E31.92162
G1 X139.871 Y128.666 E31.93671
G1 X140.252 Y128.543 E31.95535
G1 X140.683 Y128.505 E31.9755
G1 X141.203 Y128.62 E32.00029
G1 X141.59 Y128.85 E32.02126
G1 X141.902 Y129.153 E32.04151
G1 X142.164 Y129.569 E32.0644
G1 X142.265 Y130.027 E32.08624
G1 X142.26 Y130.447 E32.1058
G1 X142.187 Y130.757 E32.12063
G1 X142.056 Y131.049 E32.13553
G1 X141.817 Y131.399 E32.15526
G1 X141.31 Y131.766 E32.18441
G1 X140.687 Y131.932 E32.21443
G1 F1500 E25.71443
G0 F6000 X140.625 Y132.429
G0 X138.818 Y131.668
G0 X121.241 Y131.807
G0 X119.687 Y131.932
G1 F1500 E32.21443
G1 F1200 X119.139 Y131.857 E32.24018
G1 X118.873 Y131.762 E32.25334
G1 X118.595 Y131.603 E32.26825
G1 X118.252 Y131.279 E32.29022
G1 X118.027 Y130.917 E32.31007
G1 X117.924 Y130.623 E32.32457
G1 X117.876 Y130.189 E32.3449
G1 X117.935 Y129.77 E32.36461
G1 X118.073 Y129.418 E32.38221
G1 X118.349 Y129.037 E32.40412
G1 X118.591 Y128.829 E32.41898
G1 X118.871 Y128.666 E32.43406
G1 X119.252 Y128.543 E32.45271
G1 X119.683 Y128.505 E32.47285
G1 X120.203 Y128.62 E32.49765
G1 X120.59 Y128.85 E32.51862
G1 X120.902 Y129.153 E32.53887
G1 X121.16 Y129.561 E32.56135
G1 X121.26 Y129.983 E32.58154
G1 X121.263 Y130.425 E32.60212
G1 X121.194 Y130.739 E32.61709
G1 X121.056 Y131.049 E32.63289
G1 X120.816 Y131.395 E32.6525
G1 X120.31 Y131.766 E32.68172
G1 X119.687 Y131.932 E32.71174
G1 F1500 E26.21174
G0 F6000 X119.625 Y132.429
G0 X118.226 Y132.06
G0 X118.226 Y138.665
G0 X110.775 Y139.265
G1 F1500 E32.71174
G1 F1200 X149.375 Y139.265 E34.50911
G1 X149.375 Y121.165 E35.35193
G1 X110.775 Y121.165 E37.1493
G1 X110.775 Y139.265 E37.99212
G1 F1500 E31.49212
G0 F6000 X111.045 Y138.995
G0 X140.718 Y138.665
G0 X140.72 Y132.522
G0 X140.729 Y132.705
;TYPE:SKIN
G1 F1500 E37.99212
G1 F1200 X141.642 Y132.466 E38.03606
G1 X142.381 Y131.922 E38.07879
G1 X142.742 Y131.387 E38.10884
G1 X142.913 Y130.998 E38.12863
G1 X143.023 Y130.519 E38.15151
G1 X143.021 Y129.903 E38.1802
G1 X142.881 Y129.273 E38.21025
G1 X142.492 Y128.664 E38.2439
G1 X142.045 Y128.234 E38.27278
G1 X141.485 Y127.899 E38.30317
G1 X140.726 Y127.733 E38.33934
G1 X140.086 Y127.798 E38.3693
G1 X139.551 Y127.97 E38.39546
G1 X139.112 Y128.231 E38.41925
G1 X138.745 Y128.56 E38.4422
G1 X138.426 Y129.017 E38.46815
G1 X138.19 Y129.609 E38.49782
G1 X138.11 Y130.232 E38.52707
G1 X138.183 Y130.787 E38.55314
G1 X138.344 Y131.251 E38.57601
G1 X138.693 Y131.797 E38.60618
G1 X139.097 Y132.185 E38.63226
G1 X139.519 Y132.439 E38.6552
G1 X139.959 Y132.6 E38.67702
G1 X140.729 Y132.705 E38.7132
G1 F1500 E32.2132
G0 F6000 X140.718 Y132.44
G0 X138.818 Y131.668
G0 X121.241 Y131.807
G0 X119.729 Y132.705
G1 F1500 E38.7132
G1 F1200 X120.641 Y132.466 E38.7571
G1 X121.37 Y131.929 E38.79926
G1 X121.744 Y131.383 E38.83008
G1 X121.914 Y130.982 E38.85036
G1 X122.016 Y130.531 E38.87189
G1 X122.016 Y129.901 E38.90123
G1 X121.877 Y129.277 E38.93099
G1 X121.494 Y128.675 E38.96422
G1 X121.049 Y128.239 E38.99323
G1 X120.483 Y127.899 E39.02397
G1 X119.726 Y127.733 E39.06006
G1 X119.085 Y127.798 E39.09006
G1 X118.511 Y127.988 E39.11821
G1 X118.109 Y128.233 E39.14014
G1 X117.781 Y128.522 E39.16049
G1 X117.401 Y129.048 E39.19071
G1 X117.19 Y129.584 E39.21753
G1 X117.116 Y130.213 E39.24702
G1 X117.18 Y130.804 E39.2747
G1 X117.339 Y131.253 E39.29688
G1 X117.665 Y131.771 E39.32538
G1 X118.097 Y132.186 E39.35327
G1 X118.519 Y132.439 E39.37618
G1 X118.959 Y132.6 E39.398
G1 X119.729 Y132.705 E39.43419
G1 F1500 E32.93419
G0 F6000 X119.718 Y132.44
G0 X119.022 Y132.432
G0 X119.022 Y138.665
G0 X111.535 Y138.505
G1 F1500 E39.43419
G1 F1200 X111.536 Y121.926 E40.20618
G1 X148.615 Y121.925 E41.93273
G1 X148.615 Y138.505 E42.70476
G1 X111.535 Y138.505 E44.43136
G0 F6000 X112.282 Y138.303
G1 F1200 X111.734 Y137.756 E44.46742
G0 F6000 X111.734 Y137.19
G1 F1200 X112.847 Y138.303 E44.54071
G0 F6000 X113.413 Y138.303
G1 F1200 X111.734 Y136.625 E44.65124
G0 F6000 X111.734 Y136.059
G1 F1200 X113.979 Y138.303 E44.79905
G0 F6000 X114.544 Y138.303
G1 F1200 X111.734 Y135.493 E44.98409
G0 F6000 X111.734 Y134.927
G1 F1200 X115.11 Y138.303 E45.2064
G0 F6000 X115.676 Y138.303
G1 F1200 X111.734 Y134.362 E45.46596
G0 F6000 X111.734 Y133.796
G1 F1200 X116.241 Y138.303 E45.76275
G0 F6000 X116.807 Y138.303
G1 F1200 X111.734 Y133.23 E46.09682
G0 F6000 X111.734 Y132.665
G1 F1200 X117.373 Y138.303 E46.46812
G0 F6000 X117.939 Y138.303
G1 F1200 X111.734 Y132.099 E46.8767
G0 F6000 X111.734 Y131.533
G1 F1200 X118.504 Y138.303 E47.32252
G0 F6000 X119.07 Y138.303
G1 F1200 X111.734 Y130.968 E47.80557
G0 F6000 X111.734 Y130.402
G1 F1200 X119.636 Y138.303 E48.3259
G0 F6000 X120.201 Y138.303
G1 F1200 X111.735 Y129.837 E48.8834
G0 F6000 X111.735 Y129.271
G1 F1200 X120.767 Y138.303 E49.47817
G0 F6000 X121.333 Y138.303
G1 F1200 X111.735 Y128.706 E50.11018
G0 F6000 X111.735 Y128.14
G1 F1200 X121.898 Y138.303 E50.77943
G0 F6000 X122.464 Y138.303
G1 F1200 X111.735 Y127.574 E51.48596
G0 F6000 X111.735 Y127.009
G1 F1200 X123.03 Y138.303 E52.22972
G0 F6000 X123.595 Y138.303
G1 F1200 X111.735 Y126.443 E53.01072
G0 F6000 X111.735 Y125.877
G1 F1200 X117.136 Y131.278 E53.36639
G0 F6000 X116.949 Y130.526
G1 F1200 X111.735 Y125.312 E53.70974
G0 F6000 X111.735 Y124.746
G1 F1200 X116.943 Y129.954 E54.05269
G0 F6000 X117.021 Y129.467
G1 F1200 X111.735 Y124.18 E54.40082
G0 F6000 X111.735 Y123.614
G1 F1200 X117.181 Y129.061 E54.75948
G0 F6000 X117.393 Y128.707
G1 F1200 X111.735 Y123.049 E55.13207
G0 F6000 X111.735 Y122.483
G1 F1200 X117.634 Y128.383 E55.52056
G0 F6000 X117.935 Y128.117
G1 F1200 X111.942 Y122.125 E55.91518
G0 F6000 X112.508 Y122.125
